X: 126008
T: BOTTOM OF THE PUNCH BOWL
%R: reel
B: James Kerr "Merry Melodies" v.1 p.26 s.0 #8
Z: 2017 John Chambers <jc:trillian.mit.edu>
M: 2/4
L: 1/16
K: D
|: (uFE) |\
D2D2   d3ue | d2D2 FGAF |\
E2E2   efgf | edcB AGFE |\
D2D2   d3e  | fedB d3uA |\
vB3vG uA3uE | F2D2D2 :|
|: (de) |\
fedB   ABde | fedB d3uB |\
A2(AB) ABde | f2e2e2 (de) |\
fedB   ABde | faef d2A2 |\
BcdB   ABAG | F2D2D2 :|

%%sep 1 1 500
%%sep 1 1 500

